X: 1
T: A Day And An Age
M: 3/4
L: 1/8
R: waltz
K: Dmaj
A/2B/2c|d2c3A|B4A2|F A3F2|E4D2|D2B3A|
A F3D2|E4EF|E4A/2B/2c|d2c3A|B4A2|F A3F2|
E4D2|D2B3A|F2E3D|D6|[1D4:|[2D3d2e||
f2e2d2|g b3a2|a6|f4de|f2e2d2|g b3a2|
e6|e3g gf|e2f2d2|B3c d2|A6|d4c2|B2A2G2|
B/2c/2 d3F2|E4EF|E4AB/2c/2|d2c2A2|
B4A2|F A3F2|E4D2|D2B3A|F2E3D|D6-|D4|]
